Dev_Files/assets/linkedin.svg

<?xml version="1.0" encoding="UTF-8"?>
<svg width="30px" height="30px" viewBox="0 0 30 30" version="1.1" xmlns="http://www.w3.org/2000/svg" xmlns:xlink="http://www.w3.org/1999/xlink">
    <!-- Generator: sketchtool 49.2 (51160) - http://www.bohemiancoding.com/sketch -->
    <title>C4B6BEEF-20F7-45EB-96A0-FA2EB3142322</title>
    <desc>Created with sketchtool.</desc>
    <defs>
        <path d="M27,0 L3,0 C1.34314575,3.04359188e-16 -2.02906125e-16,1.34314575 0,3 L0,27 C2.02906125e-16,28.6568542 1.34314575,30 3,30 L27,30 C28.6568542,30 30,28.6568542 30,27 L30,3 C30,1.34314575 28.6568542,-3.04359188e-16 27,0 Z" id="path-1"></path>
    </defs>
    <g id="Symbols" stroke="none" stroke-width="1" fill="none" fill-rule="evenodd">
        <g id="FOOTER-/-Desktop" transform="translate(-1190.000000, -46.000000)">
            <g id="linkedin" transform="translate(1190.000000, 46.000000)">
                <mask id="mask-2" fill="white">
                    <use xlink:href="#path-1"></use>
                </mask>
                <path stroke="#017D44" stroke-width="2" d="M27,1 L3,1 C1.8954305,1 1,1.8954305 1,3 L1,27 C1,28.1045695 1.8954305,29 3,29 L27,29 C28.1045695,29 29,28.1045695 29,27 L29,3 C29,1.8954305 28.1045695,1 27,1 Z"></path>
                <path d="M24.8577857,23.8596296 L20.709868,23.8596296 L20.709868,17.3620741 C20.709868,15.8117037 20.6792771,13.819037 18.5513953,13.819037 C16.3903302,13.819037 16.0605707,15.5068148 16.0605707,17.2500741 L16.0605707,23.8596296 L11.9090236,23.8596296 L11.9090236,10.4974074 L15.8930985,10.4974074 L15.8930985,12.3231111 L15.9496139,12.3231111 C16.5043979,11.2731111 17.8592115,10.1645185 19.8792474,10.1645185 C24.0816066,10.1645185 24.8577857,12.9313333 24.8577857,16.5303704 L24.8577857,23.8596296 Z M7.22757995,8.67118519 C5.89661685,8.67118519 4.82023221,7.59162963 4.82023221,6.26214815 C4.82023221,4.93422222 5.89661685,3.85466667 7.22757995,3.85466667 C8.55543211,3.85466667 9.6344092,4.93422222 9.6344092,6.26214815 C9.6344092,7.59162963 8.55543211,8.67118519 7.22757995,8.67118519 Z M5.14999167,23.8596296 L9.30464974,23.8596296 L9.30464974,10.4974074 L5.14999167,10.4974074 L5.14999167,23.8596296 Z M26.9260411,0 L3.06721849,0 C1.92602263,0 1,0.904296296 1,2.01755556 L1,25.9798519 C1,27.0946667 1.92602263,28 3.06721849,28 L26.9260411,28 C28.0677555,28 29,27.0946667 29,25.9798519 L29,2.01755556 C29,0.904296296 28.0677555,0 26.9260411,0 Z" id="Fill-1" fill="#017D44" mask="url(#mask-2)"></path>
            </g>
        </g>
    </g>
</svg>

<?xml version="1.0" encoding="utf-8"?>
<!-- Generator: Adobe Illustrator 22.0.1, SVG Export Plug-In . SVG Version: 6.00 Build 0)  -->
<svg version="1.1" id="Layer_1" xmlns="http://www.w3.org/2000/svg" xmlns:xlink="http://www.w3.org/1999/xlink" x="0px" y="0px"
	 viewBox="0 0 30 30" style="enable-background:new 0 0 30 30;" xml:space="preserve">
<style type="text/css">
	.st0{fill:#017D44;}
</style>
<path class="st0" d="M27,0L27,0H3.1H3C1.3,0,0,1.3,0,3v24c0,1.7,1.3,3,3,3h24c1.7,0,3-1.3,3-3V3C30,1.3,28.7,0,27,0z M7.2,8.7
	c-1.3,0-2.4-1.1-2.4-2.4c0-1.3,1.1-2.4,2.4-2.4c1.3,0,2.4,1.1,2.4,2.4C9.6,7.6,8.6,8.7,7.2,8.7z M9.6,10.5L9.3,23.9H5.5V10.5H9.6z
	 M24.9,23.9h-4.1v-6.5c0-1.6,0-3.5-2.2-3.5c-2.2,0-2.5,1.7-2.5,3.4v6.6h-4.2V10.5h4v1.8h0.1c0.6-1,1.9-2.2,3.9-2.2
	c4.2,0,5,2.8,5,6.4V23.9z M3,28C3,28,3,28,3,28C3,28,3,28,3,28L3,28z M26.9,28c0,0,0.1,0,0.1,0C27,28,27,28,26.9,28L26.9,28z"/>
</svg>
